brandFactory_export/1.Light/Avanzar_1Light.svg

<?xml version="1.0" encoding="UTF-8"?>
<svg width="24px" height="24px" viewBox="0 0 24 24" version="1.1" xmlns="http://www.w3.org/2000/svg" xmlns:xlink="http://www.w3.org/1999/xlink">
    <title>1.Light/Avanzar_1Light</title>
    <g id="Symbols" stroke="none" stroke-width="1" fill="none" fill-rule="evenodd">
        <g id="1.Light/Avanzar_1Light" fill="#5CB615" fill-rule="nonzero">
            <path d="M11.8151261,22.6352941 C4.63193277,22.6352941 0.988235294,18.994958 0.988235294,11.8151261 C0.988235294,4.62857143 4.62857143,0.988235294 11.8151261,0.988235294 C18.994958,0.988235294 22.6352941,4.62857143 22.6352941,11.8151261 C22.6352941,18.994958 18.994958,22.6352941 11.8151261,22.6352941 Z M11.8151261,0 C4.08739496,0 0,4.08403361 0,11.8151261 C0,19.5394958 4.08403361,23.6235294 11.8151261,23.6235294 C19.5394958,23.6235294 23.6235294,19.5394958 23.6235294,11.8151261 C23.6235294,4.08403361 19.5394958,0 11.8151261,0 Z M13.5058824,14.194958 L13.5058824,8.68235294 L18.1142857,11.4521008 L13.5058824,14.194958 L13.5058824,14.194958 Z M12.7663866,7.37815126 C12.6117647,7.46554622 12.5142857,7.6302521 12.5176471,7.80840336 L12.5176471,15.0655462 C12.5176471,15.3378151 12.7361345,15.5596639 13.0084034,15.5596639 L13.0117647,15.5596639 C13.0991597,15.5596639 13.1865546,15.5361345 13.2638655,15.492437 L19.3310924,11.8789916 C19.5663866,11.7411765 19.6403361,11.4352941 19.502521,11.2033613 C19.4621849,11.1327731 19.4016807,11.0756303 19.3310924,11.0319328 L13.2672269,7.38487395 C13.112605,7.29411765 12.9243697,7.2907563 12.7663866,7.37815126 Z M6.2487395,14.2016807 L6.2487395,8.68907563 L10.8571429,11.4588235 L6.2487395,14.2016807 Z M5.51260504,7.38487395 C5.35798319,7.47226891 5.2605042,7.63697479 5.2605042,7.81512605 L5.2605042,15.0722689 C5.2605042,15.3445378 5.4789916,15.5663866 5.7512605,15.5663866 L5.75462185,15.5663866 C5.84201681,15.5663866 5.92941176,15.5428571 6.00672269,15.4991597 L12.0739496,11.8857143 C12.3092437,11.7478992 12.3831933,11.4420168 12.2453782,11.210084 C12.205042,11.1394958 12.1445378,11.0823529 12.0739496,11.0386555 L6.01008403,7.39159664 C5.85546218,7.29747899 5.66722689,7.29747899 5.51260504,7.38487395 Z" id="Avanzar_1Light"></path>
        </g>
    </g>
</svg>

<svg width="24" height="24" viewBox="0 0 24 24" xmlns="http://www.w3.org/2000/svg"><path d="M11.815 22.635c-7.183 0-10.827-3.64-10.827-10.82C.988 4.63 4.628.988 11.815.988c7.18 0 10.82 3.64 10.82 10.827 0 7.18-3.64 10.82-10.82 10.82zm0-22.635C4.087 0 0 4.084 0 11.815c0 7.724 4.084 11.809 11.815 11.809 7.724 0 11.809-4.085 11.809-11.809C23.624 4.084 19.539 0 11.815 0zm1.69 14.195V8.682l4.61 2.77-4.61 2.743zm-.739-6.817a.486.486 0 00-.248.43v7.258c0 .272.218.494.49.494h.004a.515.515 0 00.252-.068l6.067-3.613a.493.493 0 000-.847l-6.064-3.647a.503.503 0 00-.5-.007zM6.25 14.202V8.689l4.608 2.77-4.608 2.743zm-.736-6.817a.496.496 0 00-.252.43v7.257c0 .273.218.494.49.494h.004a.515.515 0 00.252-.067l6.067-3.613a.493.493 0 000-.847L6.01 7.392a.489.489 0 00-.497-.007z" fill="#5CB615" fill-rule="nonzero"/></svg>
